X:11
T:Bonnie lassie take advice
T:Mo chailinn og thoir le toigh an aire dhomh
R:Slow Air
S:Simon Fraser Collection
N:No.227
N:transposed from E_
O:Scottish
M:C
L:1/8
Q:1/2=80
K:G
G>A|B3A B4|B2e2 d3G|B2A2A2 G>A|B3A B4|B2g2 f3_e|e2B2B2:|
~g>a|b3a g2 fe|_e_e A2 B3A|G3A B4|B2g2f3_e|e2B2B2 ~g>a|
b3a g2fe|_e_e A2 B3A|G3 E G2 zA|B2g2 f3e|d2B2B2||
